X: 1543
T: Ol Sim-beden
C: Tab`î Mustafa Efendi
O: Turkey
F: http://compmusic.upf.edu/node/140
N: ussak--yuruksemai--yuruksemai--ol_sim-beden--tabi_mustafa_efendi
N: makam= ussak
N: form= yuruksemai
N: usul= yuruksemai = 6/8
M: 6/8
L: 1/16
K: C _2/4B   
Q: 1/4=96
%%MIDI tuningsystem comma53
A4f6e2f2g2 a2g2f2e2  | e2d2f2e2 d2c2_1/4B2B2 BAA8G8d4c2 d2e8f4e4f4g3fe6  | 
w:   |   | 
z2e4d4e4f3ed6  | z2d4c4d4e2 f2e2d2d2  | \
w:   |   | 
c2a2g2f2 e2d2c2c2 _1/4B2B2A2c2  | 
w:   | 
_1/4B2A2A12 A12A4 f6e2 f2g2a2g2  | \
w:   | 
f2e2e2d2 f2e2d2c2 _1/4B2B2BAA8G8d4c2d2e8f4e4f4g3fe6z2e4d4e4f3ed6z2d4c4d4e2f2e2  | 
w:   | 
d2d2c2a2 g2f2e2d2 c2c2_1/4B2B2  | \
w:   | 
A2c2_1/4B2A2 A12A12 c2B2e4 d2c2c2B2  | 
w:   | 
d4c2_1/4B2 B2A2c4 B2A2G2A2  | G^FG6 z2G4c8c2  | \
w:   |   | 
_1/4B2B2A2G2 ^F2G12G8z4G4A4B4c4d4e2 f2a2g2f2 e2e2d2d2  | 
w:   | 
e2d2c4 _1/4B2f6 e2e2d2c2  | _1/4B2B2A2c2 B2A2A12  | \
w:   |   | 
A8 z4G8A4  | A6z2 A4_1/4B6c2d2c2  | 
w:   |   | 
_1/4B3AG6z2c8d2c2  | _1/4B2B6 A2G2^F2G12G8z4e8e2  | \
w:   |   | 
f2d8g4f4a2g2g2  | 
w:   | 
f2f2e2_7/8e3dc4d4e4e4e2d2g4^f2e2gf edc8c8z4=f6=e2e2  | 
w:   | 
d2d8c2_1/4B2B2 A2A4A2  | _1/4B2G4e2 f2e2d2c4d8d8z4g6f2e2  | 
w:   |   | 
d2d8c2_1/4B2B2 A2A4A2  | _1/4B2G4g2 f2e2f2e4f6  | \
w:   |   | 
e2edc_1/4BA6z2A4f6  | 
w:   | 
e2f2g2a2 g2f2e2e2 d2f2e2d2  | c2_1/4B2B2BA A12G8d4 c2d2e8f4  | 
w:   |   | 
e4f4 g3fe6z2e4  | d4e4 f3ed6z2d4  | c4d4 e2f2e2d2 d2c2a2g2  | 
w:   |   |   | 
f2e2d2c2 c2_1/4B2B2A2 c2B2A2A12A8z4G4c4c4c2B2c6z2G8A4B4c8c6z2c4c4g8g4a6 g2f4g2 f2a2g2f2  | 
w:   | 
e4g4 f4_7/8e4 d6z2  | d8 e2f2c4 a2g2f2e2  | \
w:   |   | 
f6e2 e2d2c3_1/4B A8  | 
w:   | 
e4f4 d4a4 g2f2e2d2  | e2d4c2 c2_1/4B2B2A2 A6z2  | \
w:   |   | 
G8 d4c2d2 e8  | 
w:   | 
f4e4 f4g3f e6z2  | e4d4 e4f3e d6z2  | \
w:   |   | 
d4c4 d4e2f2 e2d2d2c2  | 
w:   | 
a2g2f2e2 d2c2c2_1/4B2 B2A2c2B2  | \
w:   | 
A2A12A12c2_1/4B2e4d2c2c2 B2d4c2  | 
w:   | 
_1/4B2B2A2c4B2A2G2 A2G^FG6z2G4 c8 c2B2B2A2  | \
w:   | 
G2^F2G12 G8  | 
w:   | 
z4G4 A4_1/4B4 c4d4  | e2f2a2g2 f2e2e2d2 d2e2d2c4_1/4B2f6e2e2d2 c2B2B2A2  | 
w:   |   | 
c2_1/4B2A2A12A8z4G8A4A6  | z2A4_1/4B6c2d2 c2B3AG6z2c8d2 c2B2B6A2G2^F2 G12G8z4 e8 e2f2d8g4 f4a2g2 g2f2f2e2  | 
w:   |   | 
_7/8e3dc4 d4e4 e4e2d2  | g4^f2_7/8e2 gfedc8c8z4 =f6=e2 e2d2d8c2_1/4B2 B2A2A4 A2B2G4  | 
w:   |   | 
e2f2e2d2 c4d8d8z4 g6f2 e2d2d8c2_1/4B2 B2A2A4 A2B2G4  | 
w:   | 
g2f2e2f2 e4f6e2edc_1/4B  | A6z2 |
w:   |   | 


